img/blog_inner/tg.svg

<svg width="50" height="51" viewBox="0 0 50 51" fill="none" xmlns="http://www.w3.org/2000/svg">
<rect width="50" height="50.5882" rx="10" fill="#28A8EA"/>
<path fill-rule="evenodd" clip-rule="evenodd" d="M23.2097 17.214C14.9812 20.4176 8.0737 23.1478 7.85989 23.2809C7.41856 23.556 7.08203 24.0042 7.08203 24.3171C7.08203 24.4413 7.19832 24.6462 7.36307 24.8123C7.58974 25.0407 7.88408 25.172 8.88535 25.4914C9.56802 25.7092 11.3926 26.2928 12.94 26.7882L15.7534 27.6891L24.3035 22.238C29.006 19.2399 33.0272 16.6954 33.2395 16.5834C33.7228 16.3283 34.2131 16.341 34.2511 16.6096C34.2711 16.7504 32.7506 18.1744 27.1524 23.2577C23.0251 27.0053 20.0132 29.8023 19.9925 29.9066C19.9559 30.0909 19.5139 37.0171 19.5163 37.3685C19.5179 37.613 19.6916 37.6168 20.2018 37.3835C20.4509 37.2697 21.0389 36.7617 21.8742 35.9388C22.5828 35.2408 23.4966 34.3429 23.905 33.9436L24.6474 33.2176L28.4504 36.0528C30.5419 37.6122 32.4228 38.9636 32.63 39.056C33.1926 39.307 33.922 39.2367 34.2766 38.8971C34.4223 38.7575 34.6135 38.5025 34.7014 38.3304C34.7893 38.1582 35.1323 36.7386 35.4636 35.1756C39.6514 15.4186 40.0242 13.588 39.9975 12.9141C39.9682 12.1789 39.8386 11.9178 39.3295 11.5686C38.7166 11.1483 39.4439 10.8935 23.2097 17.214Z" fill="white"/>
</svg>

<svg width="50" height="51" fill="none" xmlns="http://www.w3.org/2000/svg"><rect width="50" height="50.588" rx="10" fill="#28A8EA"/><path fill-rule="evenodd" clip-rule="evenodd" d="M23.21 17.214c-8.229 3.204-15.136 5.934-15.35 6.067-.441.275-.778.723-.778 1.036 0 .124.116.33.281.495.227.229.521.36 1.522.68.683.217 2.508.8 4.055 1.296l2.813.901 8.55-5.451c4.703-2.998 8.724-5.543 8.936-5.655.484-.255.974-.242 1.012.027.02.14-1.5 1.564-7.099 6.648-4.127 3.747-7.139 6.544-7.16 6.649-.036.184-.478 7.11-.476 7.461.002.245.176.249.686.015.249-.113.837-.621 1.672-1.444a994.08 994.08 0 0 1 2.031-1.995l.742-.726 3.803 2.835c2.092 1.56 3.973 2.91 4.18 3.003.563.251 1.292.18 1.647-.159.145-.14.337-.395.424-.567.088-.172.431-1.591.763-3.154 4.187-19.757 4.56-21.588 4.534-22.262-.03-.735-.16-.996-.668-1.345-.613-.42.114-.676-16.12 5.645Z" fill="#fff"/></svg>
